src/images/svg/symbols/ltc-usd.svg

<svg width="32" height="32" viewBox="0 0 32 32" fill="none" xmlns="http://www.w3.org/2000/svg">
<path d="M2 11C2 6.02944 6.02944 2 11 2V2C15.9706 2 20 6.02944 20 11V11C20 15.9706 15.9706 20 11 20V20C6.02944 20 2 15.9706 2 11V11Z" fill="#BFBBBB"/>
<path d="M7.86519 12.8079L7.0625 13.1195L7.4495 11.5676L8.26175 11.2413L9.43231 6.5H12.3174L11.4629 9.98525L12.2561 9.66406L11.8736 11.2109L11.0709 11.5321L10.5939 13.4913H14.9375L14.4464 15.5H7.20425L7.86519 12.8079Z" fill="white"/>
<path d="M12 21C12 16.0294 16.0294 12 21 12V12C25.9706 12 30 16.0294 30 21V21C30 25.9706 25.9706 30 21 30V30C16.0294 30 12 25.9706 12 21V21Z" fill="white"/>
<path fill-rule="evenodd" clip-rule="evenodd" d="M20.6193 12C18.886 12.0999 17.2854 12.6903 15.9524 13.6331H26.3383C25.0052 12.6903 23.4046 12.0999 21.6712 12H21.3943H20.6193ZM14.1924 15.2657C13.7798 15.7672 13.4222 16.3149 13.125 16.8987L23.9472 16.8988H29.1657C28.8684 16.3151 28.5111 15.7673 28.0981 15.2658L24.1011 15.2657H14.1924ZM12.0371 20.1809C12.0862 19.6202 12.1875 19.0747 12.3353 18.5483H29.6523C29.8002 19.0746 29.9014 19.6202 29.9507 20.1809H12.0371ZM12.0405 21.8143C12.0926 22.3753 12.1976 22.9208 12.3484 23.4469H29.6394C29.7904 22.9208 29.8952 22.3752 29.9473 21.8143H12.0405ZM14.0792 26.7129C13.6614 26.212 13.2987 25.6642 12.9969 25.08H24.3481L28.9908 25.08C28.6891 25.6643 28.3264 26.212 27.9086 26.7129H23.53L14.0792 26.7129ZM20.6133 29.969L20.6406 29.97L20.6679 29.971C20.7761 29.9749 20.8846 29.9775 20.9938 29.9775C22.9005 29.9775 24.6673 29.3734 26.1223 28.3463L23.2321 28.3462H15.8655C17.223 29.3046 18.8524 29.8945 20.6133 29.969Z" fill="#F44336"/>
<path d="M20.8077 12.0049C16.1988 12.0986 12.4424 15.6572 12.0381 20.1836H20.8078V12.0049H20.8077Z" fill="#283991"/>
<path d="M13.7997 17.0851L13.9367 17.5061H14.3806L14.0215 17.7664L14.1586 18.1877L13.7997 17.9273L13.4408 18.1877L13.5777 17.7664L13.2187 17.5061H13.6626L13.7997 17.0851Z" fill="#EFEFEF"/>
<path d="M13.7997 18.5725L13.9367 18.9938H14.3806L14.0215 19.2541L14.1586 19.6754L13.7997 19.4149L13.4408 19.6754L13.5777 19.2541L13.2187 18.9938H13.6626L13.7997 18.5725Z" fill="#EFEFEF"/>
<path d="M15.2905 14.8534L15.4275 15.2746H15.8713L15.5123 15.5351L15.6493 15.9561L15.2905 15.6959L14.9314 15.9561L15.0685 15.5351L14.7093 15.2746H15.1532L15.2905 14.8534Z" fill="#EFEFEF"/>
<path d="M15.2905 16.3411L15.4275 16.7623H15.8713L15.5123 17.0224L15.6493 17.4438L15.2905 17.1836L14.9314 17.4438L15.0685 17.0224L14.7093 16.7623H15.1532L15.2905 16.3411Z" fill="#EFEFEF"/>
<path d="M15.2905 17.8288L15.4275 18.2501H15.8713L15.5123 18.5101L15.6493 18.9314L15.2905 18.671L14.9314 18.9314L15.0685 18.5101L14.7093 18.2501H15.1532L15.2905 17.8288Z" fill="#EFEFEF"/>
<path d="M12.6678 18.9314L12.5307 18.5101L12.8897 18.2499H12.446L12.4361 18.2192C12.3873 18.3696 12.3433 18.5218 12.3027 18.6756L12.309 18.671L12.6678 18.9314Z" fill="#EFEFEF"/>
<path d="M13.4408 16.7001L13.7996 16.4396L14.1587 16.7001L14.0215 16.2788L14.3805 16.0183H13.9366L13.7995 15.5973L13.6625 16.0183H13.4989C13.4685 16.0642 13.4391 16.1104 13.4096 16.157L13.5777 16.2788L13.4408 16.7001Z" fill="#EFEFEF"/>
<path d="M15.2905 14.2082L15.6493 14.4684L15.5123 14.0474L15.8711 13.787H15.6148C15.3971 13.9494 15.1871 14.1213 14.9853 14.3026L14.9311 14.4684L15.2905 14.2082Z" fill="#EFEFEF"/>
<path d="M16.4223 13.7247L16.7813 13.4643L17.1401 13.7247L17.0031 13.3034L17.3619 13.0432H16.9182L16.8996 12.9865C16.7492 13.0632 16.6004 13.143 16.4549 13.2279L16.5592 13.3034L16.4223 13.7247Z" fill="#EFEFEF"/>
<path d="M16.7813 14.1097L16.9183 14.5306H17.3621L17.0031 14.7911L17.1401 15.2124L16.7813 14.9519L16.4222 15.2124L16.5593 14.7911L16.2002 14.5306H16.6441L16.7813 14.1097Z" fill="#EFEFEF"/>
<path d="M16.7813 15.5974L16.9183 16.0183H17.3621L17.0031 16.2788L17.1401 16.7001L16.7813 16.4396L16.4222 16.7001L16.5593 16.2788L16.2002 16.0183H16.6441L16.7813 15.5974Z" fill="#EFEFEF"/>
<path d="M16.7813 17.0851L16.9183 17.5061H17.3621L17.0031 17.7664L17.1401 18.1877L16.7813 17.9273L16.4222 18.1877L16.5593 17.7664L16.2002 17.5061H16.6441L16.7813 17.0851Z" fill="#EFEFEF"/>
<path d="M16.7813 18.5725L16.9183 18.9938H17.3621L17.0031 19.2541L17.1401 19.6754L16.7813 19.4149L16.4222 19.6754L16.5593 19.2541L16.2002 18.9938H16.6441L16.7813 18.5725Z" fill="#EFEFEF"/>
<path d="M18.2721 13.3658L18.4091 13.7869H18.8529L18.494 14.0474L18.6309 14.4684L18.2721 14.2082L17.9129 14.4684L18.0501 14.0474L17.691 13.7869H18.1349L18.2721 13.3658Z" fill="#EFEFEF"/>
<path d="M18.2721 14.8534L18.4091 15.2746H18.8529L18.494 15.5351L18.6309 15.9561L18.2721 15.6959L17.9129 15.9561L18.0501 15.5351L17.691 15.2746H18.1349L18.2721 14.8534Z" fill="#EFEFEF"/>
<path d="M18.2721 16.3411L18.4091 16.7623H18.8529L18.494 17.0224L18.6309 17.4438L18.2721 17.1836L17.9129 17.4438L18.0501 17.0224L17.691 16.7623H18.1349L18.2721 16.3411Z" fill="#EFEFEF"/>
<path d="M18.2721 17.8288L18.4091 18.2501H18.8529L18.494 18.5101L18.6309 18.9314L18.2721 18.671L17.9129 18.9314L18.0501 18.5101L17.691 18.2501H18.1349L18.2721 17.8288Z" fill="#EFEFEF"/>
<path d="M19.7629 12.6221L19.8999 13.0432H20.3437L19.9847 13.3034L20.1217 13.7247L19.7629 13.4642L19.4038 13.7247L19.5409 13.3034L19.1818 13.0432H19.6256L19.7629 12.6221Z" fill="#EFEFEF"/>
<path d="M19.7629 14.1097L19.8999 14.5306H20.3437L19.9847 14.7911L20.1217 15.2124L19.7629 14.9519L19.4038 15.2124L19.5409 14.7911L19.1818 14.5306H19.6256L19.7629 14.1097Z" fill="#EFEFEF"/>
<path d="M19.7629 15.5974L19.8999 16.0183H20.3437L19.9847 16.2788L20.1217 16.7001L19.7629 16.4396L19.4038 16.7001L19.5409 16.2788L19.1818 16.0183H19.6256L19.7629 15.5974Z" fill="#EFEFEF"/>
<path d="M19.7629 17.0851L19.8999 17.5061H20.3437L19.9847 17.7664L20.1217 18.1877L19.7629 17.9273L19.4038 18.1877L19.5409 17.7664L19.1818 17.5061H19.6256L19.7629 17.0851Z" fill="#EFEFEF"/>
<path d="M19.7629 18.5725L19.8999 18.9938H20.3437L19.9847 19.2541L20.1217 19.6754L19.7629 19.4149L19.4038 19.6754L19.5409 19.2541L19.1818 18.9938H19.6256L19.7629 18.5725Z" fill="#EFEFEF"/>
</svg>

<svg width="32" height="32" fill="none" xmlns="http://www.w3.org/2000/svg"><path d="M2 11a9 9 0 1 1 18 0 9 9 0 1 1-18 0Z" fill="#BFBBBB"/><path d="m7.865 12.808-.803.312.387-1.552.813-.327L9.432 6.5h2.885l-.854 3.485.793-.32-.382 1.546-.803.321-.477 1.96h4.344l-.492 2.008H7.204l.661-2.692Z" fill="#fff"/><path d="M12 21a9 9 0 1 1 18 0 9 9 0 1 1-18 0Z" fill="#fff"/><path fill-rule="evenodd" clip-rule="evenodd" d="M20.62 12c-1.734.1-3.335.69-4.668 1.633h10.386A8.956 8.956 0 0 0 21.671 12H20.62Zm-6.428 3.266a8.985 8.985 0 0 0-1.067 1.633h16.041a8.973 8.973 0 0 0-1.068-1.633H14.192Zm-2.155 4.915c.05-.56.15-1.106.298-1.633h17.317c.148.527.25 1.072.299 1.633H12.037Zm.003 1.633c.053.561.158 1.107.308 1.633H29.64a8.897 8.897 0 0 0 .308-1.633H12.041Zm2.04 4.899a8.99 8.99 0 0 1-1.083-1.633H28.99a8.981 8.981 0 0 1-1.082 1.633H14.08Zm6.533 3.256.028.001.027.001a8.86 8.86 0 0 0 5.454-1.625H15.866a8.859 8.859 0 0 0 4.747 1.623Z" fill="#F44336"/><path d="M20.808 12.005a8.991 8.991 0 0 0-8.77 8.179h8.77v-8.18Z" fill="#283991"/><path d="m13.8 17.085.137.421h.444l-.36.26.138.422-.36-.26-.358.26.137-.422-.36-.26h.445l.137-.42ZM13.8 18.573l.137.42h.444l-.36.261.138.421-.36-.26-.358.26.137-.42-.36-.261h.445l.137-.421ZM15.29 14.853l.138.422h.443l-.359.26.137.421-.358-.26-.36.26.138-.42-.36-.261h.444l.137-.422ZM15.29 16.341l.138.421h.443l-.359.26.137.422-.358-.26-.36.26.138-.422-.36-.26h.444l.137-.42ZM15.29 17.829l.138.421h.443l-.359.26.137.421-.358-.26-.36.26.138-.42-.36-.26h.444l.137-.422ZM12.668 18.931l-.137-.42.359-.261h-.444l-.01-.03c-.049.15-.093.302-.133.456l.006-.005.359.26ZM13.44 16.7l.36-.26.359.26-.138-.421.36-.26h-.444l-.137-.422-.138.421H13.5l-.09.139.169.122-.137.421ZM15.29 14.208l.36.26-.138-.42.36-.261h-.257a8.941 8.941 0 0 0-.63.516l-.054.165.36-.26ZM16.422 13.725l.36-.26.358.26-.137-.422.359-.26h-.444l-.018-.056c-.15.076-.3.156-.445.24l.104.076-.137.422ZM16.781 14.11l.137.42h.444l-.359.261.137.421-.359-.26-.359.26.137-.42-.359-.261h.444l.137-.421ZM16.781 15.597l.137.421h.444l-.359.26.137.422-.359-.26-.359.26.137-.421-.359-.26h.444l.137-.422ZM16.781 17.085l.137.421h.444l-.359.26.137.422-.359-.26-.359.26.137-.422-.359-.26h.444l.137-.42ZM16.781 18.573l.137.42h.444l-.359.261.137.421-.359-.26-.359.26.137-.42-.359-.261h.444l.137-.421ZM18.272 13.366l.137.42h.444l-.359.261.137.421-.359-.26-.36.26.138-.42-.359-.261h.444l.137-.421ZM18.272 14.853l.137.422h.444l-.359.26.137.421-.359-.26-.36.26.138-.42-.359-.261h.444l.137-.422ZM18.272 16.341l.137.421h.444l-.359.26.137.422-.359-.26-.36.26.138-.422-.359-.26h.444l.137-.42ZM18.272 17.829l.137.421h.444l-.359.26.137.421-.359-.26-.36.26.138-.42-.359-.26h.444l.137-.422ZM19.763 12.622l.137.421h.444l-.36.26.138.422-.36-.26-.358.26.137-.422-.36-.26h.445l.137-.42ZM19.763 14.11l.137.42h.444l-.36.261.138.421-.36-.26-.358.26.137-.42-.36-.261h.445l.137-.421ZM19.763 15.597l.137.421h.444l-.36.26.138.422-.36-.26-.358.26.137-.421-.36-.26h.445l.137-.422ZM19.763 17.085l.137.421h.444l-.36.26.138.422-.36-.26-.358.26.137-.422-.36-.26h.445l.137-.42ZM19.763 18.573l.137.42h.444l-.36.261.138.421-.36-.26-.358.26.137-.42-.36-.261h.445l.137-.421Z" fill="#EFEFEF"/></svg>
